X: 732
M: C
L: 1/8
K: C
V: 1
|:\
|:\
g>age f>gfd | e>fec (B/c/d) T^F2 |\
V: 2 clef=bass middle=d
|:\
c2c2 c2c2 | c2c2 G2G2 |\
c2c2 c2c2 | G2G2 C2C2 :|
|:\
g2g2 g2g2 | g2g2 g2g2 |\
g2g2 e2c2 | f2g2 c2c2 :|

